X: 232
T: Ci pian
L: 1/8
M: 2/4
K: D
B2B2 [I:setbarnb 1]| 
z d B A | 
A FA2- | 
A2F A | 
B2d2 | 
zA2F | 
A FE2- | 
E2B2 | 
B A B c | 
B B A F | 
A4 | 
F AB2 | 
B c B A | 
G F E D | 
E4 | 
F ED2 | 
E4 | 
A3d | 
B A F E | 
D4 | 
B,3D | 
E3A | 
D E c B | 
A2D2 | 
B A G F | 
A3B | 
A4 |]

@@@ Tune index: 9106
